Newaita/actions/22/action-unavailable.svg

<svg height="22" viewBox="0 0 22 22" width="22" xmlns="http://www.w3.org/2000/svg"><g fill="#424242"><path d="m10.914062 1.992188c-5.039062 0-9.09375 4.054687-9.09375 9.09375 0 5.039062 4.054688 9.097656 9.09375 9.097656 5.039063 0 9.097657-4.058594 9.097657-9.097656 0-5.039063-4.058594-9.09375-9.097657-9.09375zm0 1.816406c4.03125 0 7.277344 3.246094 7.277344 7.277344s-3.246094 7.277343-7.277344 7.277343-7.277343-3.246093-7.277343-7.277343 3.246093-7.277344 7.277343-7.277344zm0 0"/><path d="m4.484375 16.234375 11.574219-11.578125 1.289062 1.285156-11.578125 11.578125zm0 0"/></g></svg>

<?xml version="1.0" encoding="UTF-8"?>
<svg xmlns="http://www.w3.org/2000/svg" xmlns:xlink="http://www.w3.org/1999/xlink" width="22px" height="22px" viewBox="0 0 22 22" version="1.1">
<g id="surface1">
<path style=" stroke:none;fill-rule:nonzero;fill:rgb(25.882354%,25.882354%,25.882354%);fill-opacity:1;" d="M 10.914062 1.992188 C 5.875 1.992188 1.820312 6.046875 1.820312 11.085938 C 1.820312 16.125 5.875 20.183594 10.914062 20.183594 C 15.953125 20.183594 20.011719 16.125 20.011719 11.085938 C 20.011719 6.046875 15.953125 1.992188 10.914062 1.992188 Z M 10.914062 3.808594 C 14.945312 3.808594 18.191406 7.054688 18.191406 11.085938 C 18.191406 15.117188 14.945312 18.363281 10.914062 18.363281 C 6.882812 18.363281 3.636719 15.117188 3.636719 11.085938 C 3.636719 7.054688 6.882812 3.808594 10.914062 3.808594 Z M 10.914062 3.808594 "/>
<path style=" stroke:none;fill-rule:nonzero;fill:rgb(25.882354%,25.882354%,25.882354%);fill-opacity:1;" d="M 4.484375 16.234375 L 16.058594 4.65625 L 17.347656 5.941406 L 5.769531 17.519531 Z M 4.484375 16.234375 "/>
</g>
</svg>
